!!!COM: Henri Duparc
!!!CNT: Francais
!!!TXO: Francais
!!!OTL: L'Invitation au Voyage
!!!LYR: Charles Baudelaire
!!!ENC: Jacob Pegg
!!!YOR: Henri Duparc: Complete Songs for Voice and Piano
!!!YOR: New York: Dover publications, inc., 1995 
!!!YOR: ISBN 0-486-28466-2
!!!ODT: 1870/
!!NB: Vocal melody and text only encoded.
**kern	**silbe
*clef G2	*
*k[b-e-a-]	*
*M6/8	*
*MM[lento]	*
!! created: 6/24/03 23:51
!! last edited: 7/21/03 22:18
=3	=3
4r	.
8r	.
8r	.
{8g	{Mon
8g	en-
=4	=4
[4.a-	-fant,
8a-]}	|}
8r	.
{8a-	{ma
=5	=5
4g}	soeur,}
8r	.
{[4.cc	{Songe
=6	=6
4cc]	|
8cc	a\
4b-	la
8a-	dou-
=7	=7
4g}	-ceur}
{8g	{D'al-
4cc	-ler
8cc	la\-
=8	=8
4.dd	-bas
4ff	vivre
8ff	en-
=9	=9
(2.gg	-sem-
=10	=10
4g)}	-ble.}
8r	.
8r	.
8r	.
{8g	{Ai-
=11	=11
4.g	-mer
4cc	a\
8ee-	loi-
=12	=12
[4.dd	-sir,
8dd]}	|}
8r	.
{8dd	{Ai-
=13	=13
4.gg	-mer
4cc	et
8ee-	mou-
=14	=14
4dd}	-rir}
8r	.
{4cc	{Au
8b-	pa-
=15	=15
4.a-	-ys
8a-	qui
8g	te
8f	res-
=16	=16
4.g	-sem-
8g}	-ble!}
8r	.
8r	.
=17	=17
2.r	.
=18	=18
4r	.
8r	.
8r	.
{8g	{Les
8g	so-
=19	=19
[4.a-	-leils
4a-]	|
8dd	mouil-
=20	=20
4.een}	-le/s}
8r	.
{8g	{De
8g	ces
=21	=21
[4.a-	ciels
4a-]	|
8dd	brouil-
=22	=22
4een}	-le/s}
8r	.
{8een	{Pour
8gg	mon
8een	es-
=23	=23
4.dd	-prit
4cc	ont
8b-	les
=24	=24
4.an	char-
4.an}	-mes}
=25	=25
{4a-	{Si
8a-	mys-
4b-	-te/-
8a-	-ri-
=26	=26
4g}	-eux}
8r	.
{[4.cc	{De
=27	=27
4cc]	|
8cc	tes
4b-	trai^-
8a-	-tres
=28	=28
4g}	yeux,}
8r	.
{8g	{Bril-
4cc	-lant
=29	=29
4dd	a\
8dd	tra-
4ff	-vers
8ff	leurs
=30	=30
(2.gg	lar-
=31	=31
4.g)}	-mes.}
4r	.
8r	.
=32	=32
*M9/8	*
*MM[larghetto]	*
!!tempo marking of "Un peu plus vite"
4r	.
8r	.
2.cc	La\,
=33	=33
4r	.
8r	.
{[8.cc	{tout
8.cc]	n'est
[4.cc	qu'ordre
=34	=34
4.cc]	|
4.cc	et
4.cc	beau-
=35	=35
2.cc}	-te/,}
4r	.
8r	.
=36	=36
4r	.
8r	.
{4.g	{Lu-
4g}	-xe,}
8r	.
=37	=37
4r	.
8r	.
{[4.g	{cal-
4g]}	-me}
8r	.
=38	=38
{4.g	{et
[4.g	vo-
8.g]	|
8.g	-lup-
=39	=39
2.g}	-te/.}
4r	.
8r;	.
=40	=40
*M6/8	*
*MM[largo]	*
4.r	.
4.r	.
=41	=41
4.r	.
4.r	.
=42	=42
4r	.
8r	.
{4.g	{Vois
=43	=43
4.a-	sur
4a-	ces
8a-	ca-
=44	=44
4g}	-naux}
{8g	{Dor-
[4.cc	-mir
=45	=45
4.cc]	|
4b-	ces
8a-	vais-
=46	=46
4g}	-seaux}
8r	.
{4cc	{Dont
8cc	l'hu-
=47	=47
4dd	-meur
8dd	est
4ff	va-
8ff	-ga-
=48	=48
(2.gg	-bond-
=49	=49
4g)}	-e;}
8r	.
4r	.
8r	.
=50	=50
{4cc	{C'est
8cc	pour
4ee-	as-
8cc	-sou-
=51	=51
[4.ff	-vir
4ff]}	|}
{8aa-	{Ton
=52	=52
4.gg	moin-
4ee-	-dre
8cc	de/-
=53	=53
8dd}	-sir}
8r	.
{8dd	{Qu'ils
[4.dd	vien-
=54	=54
4.dd]	|
4bn	-nent
8an	du
=55	=55
[4.g	bout
4g]	|
8bn	du
=56	=56
2.an	mon-
=57	=57
4g}	-de.}
8r	.
4r	.
8r	.
=58	=58
*k[]	*
*M9/8	*
*MM[larghetto]	*
4r	.
8r	.
4r	.
8r	.
{4g	{Les
8g	so-
=59	=59
[2.cc#	-leils
4cc#]	|
8cc#	cou-
=60	=60
[4.dd	-chants
4dd]}	|}
8r	.
{4.dd	{Re-
=61	=61
4.gg	-ve^-
[4.ff	-tent
4ff]	|
8een	les
=62	=62
[4.dd	champs,
4dd]}	|}
8r	.
{4dd	{Les
8cc#	ca-
=63	=63
[4.dd	-naux,
8dd]}	|}
8r	.
{8dd	{la
[8.ee	ville
8.ee]	en-
=64	=64
(2.ff	-tie\-
4.dd	|
=65	=65
4.a)}	-re,}
4r	.
8r	.
4r	.
8r	.
=66	=66
{[8.a-	{D'hy-
8.a-]	-a-
[4.b-	-cinthe
4b-]	|
8a-	et
=67	=67
2.g}	d'or;}
4r	.
{8g	{Le
=68	=68
4.cc	mon-
[4.cc	-de
(8.cc]	|
8.dd)	s'en-
=69	=69
2.ee-}	-dort}
{4.g	{Dans
=70	=70
(8.cc	u-
8.dd)	-ne
4.ff	chau-
4ff	-de
8ff	lu-
=71	=71
[2.gg	-mie\-
4.gg]	|
=72	=72
4.g}	-re!}
4r	.
8r	.
4r	.
8r	.
=73	=73
2.r	.
4.r	.
=74	=74
2.r	.
4.r	.
=75	=75
4r	.
8r	.
{2.cc	{La\,
=76	=76
4r	.
8r	.
8.cc	tout
8.cc	n'est
[4.cc	qu'ordre
=77	=77
4.cc]	|
4.cc	et
4.cc	beau-
=78	=78
2.cc}	-te/,}
4r	.
8r	.
=79	=79
4r	.
8r	.
{4.g	{Lu-
4g	-xe,
8r	.
=80	=80
4r	.
8r	.
[4.g	cal-
4g]	-me
8r	.
=81	=81
4.g	et
[4.g	vo-
8.g]	|
8.g	-lup-
=82	=82
2.g}	-te/!}
4r	.
8r	.
*-	*-
